!!!COM: Beethoven
!!!OTL: Neun Variationen uber einen Marsch von E. Chr. Dressler
!!!Variation: 9 c
**function	**harm	**kern	**kern
*	*	*clefF4	*clefG2
*	*	*k[]	*k[]
*M4/4	*M4/4	*M4/4	*M4/4
*C:	*C:	*C:	*C:
=161	=161	=161	=161
1P	1V/ii	2A 2c# 2e	16r
.	.	.	16aLL
.	.	.	16b
.	.	.	16cc#JJ
.	.	.	16ddLL
.	.	.	16ee
.	.	.	16ff#
.	.	.	16gg#JJ
.	.	2r	16aaLL
.	.	.	16a
.	.	.	16b
.	.	.	16cc#JJ
.	.	.	16ddLL
.	.	.	16ee
.	.	.	16ff#
.	.	.	16gg#JJ
=162	=162	=162	=162
1P	1V/ii	4r	16aaLL
.	.	.	16bb
.	.	.	16ccc#
.	.	.	16dddJJ
.	.	4A 4c#	16eeeLL
.	.	.	16ddd
.	.	.	16ccc#
.	.	.	16bbJJ
.	.	4B- 4d	16aaLL
.	.	.	16gg#
.	.	.	16aa
.	.	.	16bb-JJ
.	.	4c# 4e	16aaLL
.	.	.	16gg
.	.	.	16ff
.	.	.	16eeJJ
=163	=163	=163	=163
1P	1ii	4d 4f	16ffLL
.	.	.	16dd
.	.	.	16cc
.	.	.	16b-JJ
.	.	4r	16aLL
.	.	.	16g
.	.	.	16f
.	.	.	16eJJ
.	.	2r	16dLL
.	.	.	16f
.	.	.	16a
.	.	.	16ddJJ
.	.	.	16fLL
.	.	.	16a
.	.	.	16dd
.	.	.	16ffJJ
=164	=164	=164	=164
1P	1ii	16DLL	2f
.	.	16d	.
.	.	16c	.
.	.	16B-JJ	.
.	.	16ALL	.
.	.	16G	.
.	.	16F	.
.	.	16EJJ	.
.	.	16DLL	2r
.	.	16F	.
.	.	16A	.
.	.	16dJJ	.
.	.	16FLL	.
.	.	16A	.
.	.	16d	.
.	.	16fJJ	.
=165	=165	=165	=165
1D	1V	2G 2B 2d	16r
.	.	.	16gLL
.	.	.	16a
.	.	.	16bJJ
.	.	.	16ccLL
.	.	.	16dd
.	.	.	16ee
.	.	.	16ff#JJ
.	.	2r	16ggLL
.	.	.	16g
.	.	.	16a
.	.	.	16bJJ
.	.	.	16ccLL
.	.	.	16dd
.	.	.	16ee
.	.	.	16ff#JJ
=166	=166	=166	=166
1D	1V	4r	16ggLL
.	.	.	16aa
.	.	.	16bb
.	.	.	16cccJJ
.	.	4G 4B	16dddLL
.	.	.	16ccc
.	.	.	16bb
.	.	.	16aaJJ
.	.	4A 4c	16ggLL
.	.	.	16ff#
.	.	.	16gg
.	.	.	16aaJJ
.	.	4B 4d	16ggLL
.	.	.	16ff
.	.	.	16ee
.	.	.	16ddJJ
=167	=167	=167	=167
1T	1I	2c 2e	16eeLL
.	.	.	16cc
.	.	.	16b
.	.	.	16aJJ
.	.	.	16gLL
.	.	.	16f
.	.	.	16e
.	.	.	16dJJ
.	.	2r	16cLL
.	.	.	16e
.	.	.	16g
.	.	.	16ccJJ
.	.	.	16eLL
.	.	.	16g
.	.	.	16cc
.	.	.	16eeJJ
=168	=168	=168	=168
1T	1I	16CLL	2e
.	.	16c	.
.	.	16B	.
.	.	16AJJ	.
.	.	16GLL	.
.	.	16F	.
.	.	16E	.
.	.	16DJJ	.
.	.	16CLL	2r
.	.	16E	.
.	.	16G	.
.	.	16cJJ	.
.	.	16ELL	.
.	.	16G	.
.	.	16c	.
.	.	16eJJ	.
*-	*-	*-	*-
